Resources/Public/Images/Icons/Ionicons/android-contacts.svg

<svg id="Layer_1" xmlns="http://www.w3.org/2000/svg" width="32" height="32" viewBox="0 0 512 512"><style>.st0{fill:#010101}</style><path class="st0" d="M236.8 363.4c-20.3 11.5-43.8 18.1-68.8 18.1s-48.5-6.6-68.8-18.1C45.3 379.8 12.3 416.6.2 464h335.7c-12.2-47.5-45.2-84.2-99.1-100.6zM168 112.2c-66.8 0-120.9 54.1-120.9 120.9s54.1 121 120.9 121S288.9 300 288.9 233.2s-54.1-121-120.9-121zm0 212.5c-38.5 0-71.3-25.7-84.5-57.7h169c-13.2 32-46 57.7-84.5 57.7z"/><g><path class="st0" d="M332.1 400h179.8c-12.2-47.5-45.2-84.2-99-100.6-20.3 11.5-43.8 18.1-68.8 18.1-16.9 0-33.2-3-48.2-8.6-8.5 14.2-19.3 26.9-32 37.6 30.1 11.6 52.8 30.1 68.2 53.5zM313.7 203h114.8c-13.2 32-46.1 57.7-84.5 57.7-10.1 0-19.9-1.8-29-5-1.5 9.9-4 19.6-7.4 28.8 11.5 3.6 23.7 5.6 36.4 5.6 66.8 0 120.9-54.1 120.9-120.9s-54.1-121-120.9-121c-42.8 0-80.4 22.3-101.9 55.8 36.3 20.9 63 56.7 71.6 99z"/></g></svg>

<?xml version="1.0" encoding="utf-8"?>
<!-- Generator: Adobe Illustrator 16.2.1, SVG Export Plug-In . SVG Version: 6.00 Build 0)  -->
<!DOCTYPE svg PUBLIC "-//W3C//DTD SVG 1.1//EN" "http://www.w3.org/Graphics/SVG/1.1/DTD/svg11.dtd">
<svg version="1.1" id="Layer_1" xmlns="http://www.w3.org/2000/svg" xmlns:xlink="http://www.w3.org/1999/xlink" x="0px" y="0px"
	 width="32px" height="32px" viewBox="0 0 512 512" style="enable-background:new 0 0 512 512;" xml:space="preserve">
<style type="text/css">
<![CDATA[
	.st0{fill:#010101;}
]]>
</style>
<g>
	<g>
		<path class="st0" d="M236.8,363.4c-20.3,11.5-43.8,18.1-68.8,18.1c-25,0-48.5-6.6-68.8-18.1c-53.9,16.4-86.9,53.2-99,100.6h335.7
			C323.7,416.5,290.7,379.8,236.8,363.4z"/>
		<g>
			<path class="st0" d="M168,112.2c-66.8,0-120.9,54.1-120.9,120.9S101.2,354.1,168,354.1s120.9-54.1,120.9-120.9
				S234.8,112.2,168,112.2z M168,324.7c-38.5,0-71.3-25.7-84.5-57.7h169C239.3,299,206.5,324.7,168,324.7z"/>
		</g>
	</g>
	<g>
		<g>
			<path class="st0" d="M332.1,400h179.8c-12.2-47.5-45.2-84.2-99-100.6c-20.3,11.5-43.8,18.1-68.8,18.1c-16.9,0-33.2-3-48.2-8.6
				c-8.5,14.2-19.3,26.9-32,37.6C294,358.1,316.7,376.6,332.1,400z"/>
		</g>
		<path class="st0" d="M313.7,203h114.8c-13.2,32-46.1,57.7-84.5,57.7c-10.1,0-19.9-1.8-29-5c-1.5,9.9-4,19.6-7.4,28.8
			c11.5,3.6,23.7,5.6,36.4,5.6c66.8,0,120.9-54.1,120.9-120.9S410.8,48.2,344,48.2c-42.8,0-80.4,22.3-101.9,55.8
			C278.4,124.9,305.1,160.7,313.7,203z"/>
	</g>
</g>
</svg>
